X:1
T:Title
%%score { ( 1 3 ) | ( 2 4 ) }
L:1/8
Q:1/4=100
M:4/4
K:Bb
V:1 treble nm="Grand Piano"
V:3 treble 
V:2 bass 
V:4 bass 
V:1
 [DF][CE][B,D][CE] [DF]2 [DB]2 | [DB][Ec][Fd][FB] [GB]2 [EG]2 | %2
w: Fred~A.~Fillmore * * * * *||
 [DF][CE][B,D][CE] [DF][EG][CA][DB] | A2 G2 F4 | [DF][CE][B,D][CE] [DF]2 [DB]2 | %5
w: |||
 [DB][Ec][Fd][FB] [GB]2 [EG]2 | [DF][CE][B,D][CE] [DF][DB][FB][Gc] | [Fd]2 [Ec]2 [DB]4 | %8
w: |||
 [Ac]2 [Ac]2 [Ac]2 [Ac]2 | z4 [GB]4 | [CGB]2 [CGB]2 [CGB]2 [CGB]2 | [GB][GB][FA]G ACFA | %12
w: ||||
 [CAc]2 [CAc]2 [CAc]2 [CAc]2 | z4 [GB]4 | B2 [GB]2 B2 B2 | BB[CFA][=EG] A,2 E2 | %16
w: ||||
 [B,DF][K:bass][F,CE][F,B,D][F,CE][K:treble] [B,DF]2 [DB]2 | [DB][Ec][Fd][FB] [GB]2 [EG]2 | %18
w: ||
 [DF][CE][B,D][CE] [DF][EG][CA][DB] | A2 G2 F4 | [DF][CE][B,D][CE] [DF]2 [DB]2 | %21
w: |||
 [DB][Ec][Fd][FB] [GB]2 [EG]2 | [DF][CE][B,D][CE] [DF][DB][FB][Gc] |[M:8/4] [Fd]2 [Ec]2 [DB]4 z8 |] %24
w: |||
V:2
 [B,,B,][B,,F,][B,,F,][B,,F,] [B,,B,]2 [B,,F,]2 | [B,,F,][B,,F,][B,,B,][D,B,] [E,B,]2 [E,B,]2 | %2
 [B,,B,][B,,F,][B,,F,][B,,F,] [B,,F,][B,,F,][B,,F,][B,,F,] | [C,F,C]2 [C,B,C]2 [F,A,C]4 | %4
 [B,,B,][B,,F,][B,,F,][B,,F,] [B,,B,]2 [B,,F,]2 | [B,,F,][B,,F,][B,,B,][D,B,] [E,B,]2 [E,B,]2 | %6
 [B,,B,][B,,F,][B,,F,][B,,F,] [B,,B,][B,,B,][D,B,][E,B,] | [F,B,]2 [F,A,]2 [B,,B,]4 | %8
 [F,C]2 [C,C]2 [F,C]2 [C,C]2 | [F,C]2 [C,C]2 [G,C]2 C,2 | G,2 C,2 G,2 C,2 | %11
 [G,C]2 z =E .[F,CF]2 z F | F,2 C,2 F,2 C,2 | [F,C]2 [C,C]2 [G,C]2 C,2 | %14
 [G,CG]2 [C,C]2[K:treble] [G,CG]2 [G,CG]2 | GG[K:bass] z B, z2 C2 | B,,B,,B,,B,, B,,2 [B,,F,]2 | %17
 [B,,F,][B,,F,][B,,B,][D,B,] [E,B,]2 [E,B,]2 | %18
 [B,,B,][B,,F,][B,,F,][B,,F,] [B,,F,][B,,F,][B,,F,][B,,F,] | [C,F,C]2 [C,B,C]2 [F,A,C]4 | %20
 [B,,B,][B,,F,][B,,F,][B,,F,] [B,,B,]2 [B,,F,]2 | [B,,F,][B,,F,][B,,B,][D,B,] [E,B,]2 [E,B,]2 | %22
 [B,,B,][B,,F,][B,,F,][B,,F,] [B,,B,][B,,B,][D,B,][E,B,] |[M:8/4] [F,B,]2 [F,A,]2 [B,,B,]4 z8 |] %24
V:3
 x8 | x8 | x8 | x8 | x8 | x8 | x8 | x8 | x8 | [Ac][Ac][GB][FA] z2 C2 | x8 | x8 | x8 | %13
 [Ac][Ac][GB][FA] z2 C2 | x8 | z4 F4 | x[K:bass] x3[K:treble] x4 | x8 | x8 | x8 | x8 | x8 | x8 | %23
[M:8/4] x16 |] %24
V:4
 x8 | x8 | x8 | x8 | x8 | x8 | x8 | x8 | x8 | x8 | x8 | z2 [C,C]2 z2 [C,C]2 | x8 | x8 | %14
 x4[K:treble] x4 | [G,C]2[K:bass] C,2 F,4 | x8 | x8 | x8 | x8 | x8 | x8 | x8 |[M:8/4] x16 |] %24

